X: 333
T: 334. F\"ur deinen Thron tret ich hiermit
N: Derived from chor334.krn
C: Johann Sebastian Bach
%%abc-version 2.0
%%abcx-abcm2ps-target-version 5.9.1 (29 Sep 2008)
%%abc-creator hum2abc beta
%%abcx-conversion-date 2019/03/11 17:28:19
%%abc-edited-by Craig Stuart Sapp
%%humdrum-veritas 3243356374
%%humdrum-veritas-data 1888084013
%%
%%barnumbers 0
L: 1/4
M: 3/4
%%staves [1 2 3 4]
V: 1 clef=treble
V: 2 clef=treble
V: 3 clef=treble-8
V: 4 clef=bass
K: D
[V:1] d [I:setbarnb 1]| 
[V:2] A | 
[V:3] f | 
[V:4] D, | 
[V:1] d2c | 
[V:2] B2A | 
[V:3] f2f | 
[V:4] B,,D,F, | 
[V:1] B2A | 
[V:2] G2F | 
[V:3] d2d | 
[V:4] G,B,D | 
[V:1] de2 | 
[V:2] FBA | 
[V:3] d2c | 
[V:4] B,G,A, | 
[V:1] !fermata!f2f | 
[V:2] !fermata!A2c | 
[V:3] !fermata!d2c | 
[V:4] !fermata!D,2^A, | 
[V:1] f2f | 
[V:2] B2B | 
[V:3] d2d | 
[V:4] B,2A, | 
[V:1] e2f | 
[V:2] BAA | 
[V:3] dcd | 
[V:4] ^G,A,F, | 
[V:1] gf2 | 
[V:2] AdA | 
[V:3] eAd | 
[V:4] C,D,F, | 
[V:1] !fermata!e2d | 
[V:2] !fermata!A2B | 
[V:3] !fermata!c2f | 
[V:4] !fermata!A,2B, | 
[V:1] e2f | 
[V:2] A2A | 
[V:3] e2d | 
[V:4] C2D | 
[V:1] e2d | 
[V:2] BA/G/F | 
[V:3] dcd | 
[V:4] G,A,B, | 
[V:1] Bc2 | 
[V:2] BB^A | 
[V:3] dgf | 
[V:4] G,E,F, | 
[V:1] !fermata!d2a | 
[V:2] !fermata!B2=A | 
[V:3] !fermata!f2e | 
[V:4] !fermata!B,,2C | 
[V:1] f2d | 
[V:2] A2B | 
[V:3] f2f | 
[V:4] DCB, | 
[V:1] e2g | 
[V:2] A2A | 
[V:3] e2c | 
[V:4] CB,A, | 
[V:1] fe2 | 
[V:2] AG2 | 
[V:3] ABc | 
[V:4] DG,A, | 
[V:1] !fermata!d2 |]  
[V:2] !fermata!F2 |]  
[V:3] !fermata!A2 |]  
[V:4] !fermata!D,2 |]  



